img/icons/this/footer/twitter.svg

<svg width="40" height="40" viewBox="0 0 40 40" fill="none" xmlns="http://www.w3.org/2000/svg">
<path d="M40 7.78973C38.4995 8.44169 36.912 8.87121 35.2875 9.06473C36.9947 8.06504 38.2786 6.47687 38.8983 4.59806C37.2842 5.54189 35.5213 6.20412 33.685 6.55639C32.9117 5.746 31.9818 5.10131 30.9516 4.66152C29.9214 4.22172 28.8126 3.99599 27.6925 3.99806C23.1575 3.99806 19.4875 7.61473 19.4875 12.0731C19.4843 12.6932 19.5553 13.3115 19.6992 13.9147C16.4472 13.7623 13.2629 12.9327 10.35 11.4791C7.43703 10.0255 4.85957 7.97986 2.7825 5.47306C2.05381 6.70149 1.66844 8.1031 1.66667 9.53139C1.66667 12.3314 3.1275 14.8064 5.33333 16.2564C4.02644 16.2254 2.74633 15.8795 1.60167 15.2481V15.3481C1.60167 19.2647 4.435 22.5231 8.185 23.2647C7.47982 23.4527 6.75314 23.548 6.02333 23.5481C5.50548 23.549 4.98881 23.4987 4.48083 23.3981C5.52333 26.6064 8.5575 28.9397 12.1517 29.0064C9.23115 31.2572 5.64552 32.4737 1.95833 32.4647C1.30385 32.4638 0.649971 32.4248 0 32.3481C3.75098 34.7432 8.11121 36.0102 12.5617 35.9981C27.675 35.9981 35.9317 23.6897 35.9317 13.0147C35.9317 12.6647 35.9225 12.3147 35.9058 11.9731C37.5084 10.8331 38.8948 9.41649 40 7.78973Z" fill="white"/>
</svg>

<svg width="40" height="40" fill="none" xmlns="http://www.w3.org/2000/svg"><path d="M40 7.79a16.817 16.817 0 01-4.712 1.275 8.126 8.126 0 003.61-4.467 16.478 16.478 0 01-5.213 1.958 8.262 8.262 0 00-5.993-2.558c-4.535 0-8.204 3.617-8.204 8.075a7.72 7.72 0 00.211 1.842A23.39 23.39 0 012.783 5.473a7.974 7.974 0 00-1.116 4.058c0 2.8 1.46 5.275 3.666 6.725a8.125 8.125 0 01-3.731-1.008v.1c0 3.917 2.833 7.175 6.583 7.917a8.396 8.396 0 01-2.162.283 7.87 7.87 0 01-1.542-.15c1.042 3.208 4.076 5.542 7.67 5.608a16.632 16.632 0 01-10.193 3.459A16.866 16.866 0 010 32.348a23.224 23.224 0 0012.562 3.65c15.113 0 23.37-12.308 23.37-22.983 0-.35-.01-.7-.026-1.042A16.541 16.541 0 0040 7.79z" fill="#fff"/></svg>
